Yaru++/places/symbolic/folder-download-symbolic.svg

<svg height="16" width="16" xmlns="http://www.w3.org/2000/svg">
  <path d="m5 1v4h-2.477s2.334 4.965 5.477 9.33c3.142-4.365 5.475-9.328 5.475-9.328h-2.475v-4.002zm1 1h4v4.002h1.836c-.676 1.35-1.895 3.628-3.836 6.518-1.94-2.89-3.16-5.17-3.836-6.52h1.836zm-4 13v1h12v-1z" fill="#808080"/>
</svg>

<svg height="16" width="16" xmlns="http://www.w3.org/2000/svg">
    <path d="M5 1v4H2.523S4.857 9.965 8 14.33c3.142-4.365 5.475-9.328 5.475-9.328H11V1zm1 1h4v4.002h1.836C11.16 7.352 9.941 9.63 8 12.52 6.06 9.63 4.84 7.35 4.164 6H6zM2 15v1h12v-1z" fill="gray" overflow="visible" style="marker:none" color="#000"/>
</svg>
